X:1
T:Bowl of Bigg
M:6/8
L:1/8
S:William Vickers' music manuscript (1770)
N:Great Northern Tune Book, Matt Seattle's edition of Vickers' ms with extensive notes (EFDSS/NPS, 2008)
S:<paul:glitchless.net>
Z:AK/Fiddler's Companion
K:D
D2A F2A|E2F GEC|D2A F2A|D2A F2A|G2B F2A|
E2F GFE|dcB AFA|D2B AFD::d2a faf|e2f ge=c|
d2a faf|d2a faf|gab fga|e2f gfe|dcB AFB|D2B AFD:||
